KINDER
CUT[FIROWE D GLOCK ISCH DROWE]
REG[Europa, Mitteleuropa, Deutschland; Frankreich, Ober - Elsass]
KEY[K0312  16  F 2/4 3/8]
MEL[  5__3_1_  5_4_3_1_
    5_6_5_6_  5_4_3_1_
    5__5_6_  5__3__
    5_6_5_6_  5__3__
    5__5_6_  5__3__
    665544  3__1__ //] >>
FCT[Kinder -, Kose -, Scherz - Lied]
